X:1
T:Title
%%score ( 1 2 ) { 3 | 4 }
L:1/8
Q:1/4=100
M:6/8
K:Ab
V:1 treble nm="Grand Piano, Soprano"
V:2 treble 
V:3 treble nm="Choir Pad, Los Cerritos, LMD"
V:4 bass 
V:1
 [CE] [EA]2 [EA] [EA]2 | [EA] [DG]2 [DF] [CE]2 | E [EA]2 [EA]AG | A [GB]2- [GB]2- [GB]/ z/ | %4
w: By~Rigdon~McCoy~McIntosh~(1836\-1899) * * *||||
 E [EAc]2 [EB] [Ec]2 | [Ed] [Ee]2 [Ec] [CA]2 | [FB] [Ec]2 [Ed]BA | [EG] [EA]2- [EA]2- [EA]/ z/ | %8
w: ||||
 [Ac] [Ae]2 [Ae]ed | [Ac] [Gd]2 [Gd][Gd][Ac] | [EB] [Ec]2 [Ed] [Ee]2 | %11
w: |||
 [Ec] [EB]2- [EB]2- [EB]/ z/ | E [EAc]2 [EB] [Ec]2 | [Ed] [Ee]2 [Ec] [CA]2 | z3 z .B2 | %15
w: ||||
 [EG] [EA]2- [EA]3- | [EA]3 z3 |] %17
w: ||
V:2
 x6 | x6 | z3 z E2 | x6 | x6 | x6 | z3 z E2 | x6 | z3 z A2 | x6 | x6 | x6 | x6 | x6 | %14
 [FB] [Ec]2 [Ed]E-[EA] | x6 | x6 |] %17
V:3
 A, C2 C C2 | A,[K:bass] B,2 G, A,2 | C E2[K:treble] EEB, | C E2- E E2 | G, A,2 G, A,2 | %5
 B, C2 A, A,2 | A, A,2 B,[K:treble]DC | B, C2- C2- C/ z/ | A, C2 CC[K:bass]B, | A, B,2 B,B,A, | %10
 G, A,2 B, C2 | A, G,2- G,2- G,/ z/ | G, A,2 G, A,2 | B, C2 A, A,2 | A, A,2 B,[K:treble]DC | %15
 B, C2- C3- | C3 z3 |] %17
V:4
 A,, A,,2 A,, A,,2 | C, E,2 E, A,,2 | A,, C,2 C,C,B,, | A,, E,2- E,2- E,/ z/ | E, C,2 B,, A,,2 | %5
 A,, A,2 z3 | D, E,2 E, E,2 | E, A,,2- A,,2- A,,/ z/ | z A,2 A, A,2 | z E,2 E, E,2 | .E,3 A, A,2 | %11
 z E,2- E,2- E,/ z/ | E, C,2 B,, A,,2 | A,, A,2 z3 | D, E,2 E, E,2 | E, A,,2- A,,3- | A,,3 z3 |] %17

